X:89
T:Vals efter Johan Lundin
T:från 1700-talet
S:efter Johan Lundin
B:SMUS - katalog M6 bild 18 nr 89
Z:Nils L
R:Vals
O:Uppland
M:3/4
L:1/8
K:G
de d^c dB | G2>G2 Bd | ga gf gb | ab a^g a2 | ge ee ge | ed dd fd | 
A2 A^c ec |1 d4 Bc :|2 d4 |: Bc | dc AF DC | B,D GB DD | ED ^CD FA |
AG FG Bd | dc AF DC | B,D GB DD | ED ^CD FA | G4 :| G2 |

